X: 33849
T: Recruiting Officer, The
R: jig
M: 6/8
K: Dmajor
|:A|def ecA|d3 A2G/F/|GAB AFD|E2E E2A|
def ecA|BgB AGF|GAB cAc|d3 D2:|
|:e|fga ecA|g3 f3|Bcd efd|c3 A2a/g/|
fed cac|BgB AGF|GAB cAc|d3 d2:|

